X:293
T: Sheli meiyou xiaonangua
N: C1790
O: China,Jiangsu Jurong
S: III, 445]
R: Shange]
M: 2/4
L: 1/16
K: C
c2ccd2e2 | edc2c4 |
c2cde2d2 | e2edc2Ac | d4e2fe | d4c2d2 | c2B2c4 |
e2edc2Ac | d4e2fe | d4
c2d2 | c2B2c4- | c4z4

@@@ Tune index: 6848
